X: 4
T:Roscommon Reel
S:Dervish
D:Dervish 4 , Solas
M:C
L:1/8
K:E Minor
|EFGA BAGB| AFdF eFdF| EFGA BAGB| AFDE FE (3EEE :|
eB (3BBB efge|~f2 af bfaf|1 eB(3BBB ~g3 e|fedf e2 gf :|2~g3 e ~f3 e| dAFA BAGF||
|:~B3 A BAGB| AF ~F2 DF ~F2| EBBA (3Bcd ef| dBAF FE E2 :|
